X: 1
T: Pibroch o' Donuil Dhu
R: jig
B: RSCDS __-12
Z: 1997 by John Chambers <jc:trillian.mit.edu>
N:
M: 6/8
L: 1/8
K: G
G \
| "G"d>BB "(C)"efg | "G"d>BB B2G \
| d>BB "(C)"efg | "G"d>BG "D7"A2"G"G \
| "G"d>BB "C"e>cc | "G"d>BB B2G \
| "Am"A>AB cde | "G"dBG "D7"A2 :|
|: G \
|  "G"d>BB "C"e>cc | "G"dBB B2G \
| "G"d>BB "C"e>cc | "G"dBG "D7"A2"G"G \
| "G"d>BB "C"e>cc | "G"d>BB BAG \
| "Am"A2B cde | "G"dBG "D7"A2 :|
